X:1
T:Falkland, 88.88.88
T:Falkland, 88.88.88
T:Melody by Henry Lawes (1596-1662) 
T:Public Domain Courtesy of the Cyber Hymnal™
C:Melody by Henry Lawes (1596-1662)
Z:Public Domain
Z:Courtesy of the Cyber Hymnal™
%%score ( 1 2 ) ( 3 4 )
L:1/8
Q:1/4=112
M:4/4
K:F
V:1 treble 
V:2 treble 
V:3 bass 
V:4 bass 
V:1
 [Fc]4 [EA]2 [DF]2 | B2 [FA]2 [FG]2 [EG]2 | F4 [CF]4 | [CE]2 C2 [A,F]2 [CG]2 | [CA]2 [FB]2 c4 | %5
 [Fc]4 [FA]2 [Ed]2 | [Fc]2 [DB]2 [EA]2 [DF]2 | [EG]4 [Cc]4 | [F=B]2 [Ec]2 d2 [Fc]2 | %9
 [Gc]2 z [Ec]4 x | [DG]4 [EG]2 [CG]2 | [CA]2 [DF]2 G2 [_EA]2 | [FB]4 [EG]4 | [FA]2 [FB]2 c2 [DG]2 | %14
 [CA]2 G2 [A,F]4 |] %15
V:2
 x8 | (DE) x6 | F4 x4 | x2 C2 x4 | x4 (F2 E2) | x8 | x8 | x8 | x4 (DE) x2 | x2 (=B2 F) x3 | x8 | %11
 x4 G2 x2 | x8 | x4 (FE) x2 | x2 (CB,) x4 |] %15
V:3
 [F,A,]4 [C,C]2 [D,A,]2 | [G,,G,]2 [A,,C]2 [B,,D]2 [C,C]2 | [F,,A,]4 [A,,F,]4 | %3
 [C,G,]2 [C,E,]2 [D,F,]2 [C,E,]2 | F,2 [D,F,]2 [C,G,]4 | [F,A,]4 [F,,A,]2 [G,,B,]2 | %6
 [A,,C]2 [B,,D]2 [C,C]2 [D,A,]2 | [C,C]4 [E,G,]4 | [D,D]2 [A,C]2 [F,A,]2 [A,C]2 | %9
 [G,D]2 [G,D]2 [C,C]4 | [G,B,]4 [C,D]2 (CB,) | [F,A,]2 [D,B,]2 B,2 [C,C]2 | [B,,D]4 [C,C]4 | %13
 [F,C]2 [D,F,]2 [A,,F,]2 [B,,F,]2 | [C,F,]2 [C,E,]2 [F,,F,]4 |] %15
V:4
 x8 | x8 | x8 | x8 | F,2 x6 | x8 | x8 | x8 | x8 | x8 | x6 E,2 | x4 (_E,D,) x2 | x8 | x8 | x8 |] %15

